icons/firebase-dark.svg

<svg width="256" height="256" viewBox="0 0 256 256" fill="none" xmlns="http://www.w3.org/2000/svg">
<g id="Firebase">
<path id="Vector" d="M196 0H60C26.8629 0 0 26.8629 0 60V196C0 229.137 26.8629 256 60 256H196C229.137 256 256 229.137 256 196V60C256 26.8629 229.137 0 196 0Z" fill="#282828"/>
<g id="Group 11">
<path id="Vector_2" d="M98.7236 219.774C106.899 223.064 115.769 225.017 125.082 225.342C137.686 225.782 149.671 223.176 160.386 218.226C147.537 213.178 135.9 205.796 125.969 196.617C119.531 206.925 110.01 215.066 98.7236 219.774Z" fill="#FF9100"/>
<path id="Vector_3" d="M125.967 196.619C103.297 175.652 89.544 145.305 90.7063 112.02C90.7441 110.939 90.8011 109.859 90.8678 108.779C86.8076 107.729 82.5688 107.088 78.2066 106.936C71.9626 106.718 65.9158 107.492 60.2071 109.1C54.1553 119.701 50.5033 131.864 50.0483 144.892C48.8741 178.516 69.2217 207.895 98.722 219.776C110.008 215.068 119.529 206.936 125.967 196.619Z" fill="#FFC400"/>
<path id="Vector_4" d="M125.968 196.619C131.239 188.184 134.435 178.295 134.807 167.641C135.785 139.615 116.945 115.506 90.8685 108.778C90.8018 109.858 90.7447 110.938 90.707 112.019C89.5446 145.305 103.297 175.652 125.968 196.619Z" fill="#FF9100"/>
<path id="Vector_5" d="M131.891 30C117.039 41.8978 105.312 57.586 98.2166 75.6584C94.1544 86.0101 91.6017 97.1295 90.8564 108.785C116.933 115.513 135.773 139.622 134.795 167.648C134.423 178.302 131.217 188.181 125.956 196.626C135.887 205.814 147.524 213.187 160.373 218.235C186.163 206.314 204.461 180.661 205.521 150.319C206.207 130.66 198.654 113.139 187.981 98.35C176.71 82.709 131.891 30 131.891 30Z" fill="#DD2C00"/>
</g>
</g>
</svg>

<svg xmlns="http://www.w3.org/2000/svg" width="256" height="256" fill="none"><g id="Firebase"><path id="Vector" fill="#282828" d="M196 0H60C26.863 0 0 26.863 0 60v136c0 33.137 26.863 60 60 60h136c33.137 0 60-26.863 60-60V60c0-33.137-26.863-60-60-60"/><g id="Group 11"><path id="Vector_2" fill="#FF9100" d="M98.724 219.774a77.7 77.7 0 0 0 26.358 5.568 77.5 77.5 0 0 0 35.304-7.116 110 110 0 0 1-34.417-21.609c-6.438 10.308-15.959 18.449-27.245 23.157"/><path id="Vector_3" fill="#FFC400" d="M125.967 196.619c-22.67-20.967-36.423-51.314-35.26-84.599.037-1.081.094-2.161.16-3.241a58.7 58.7 0 0 0-30.66.321 77.4 77.4 0 0 0-10.159 35.792c-1.174 33.624 19.174 63.003 48.674 74.884a58.9 58.9 0 0 0 27.245-23.157"/><path id="Vector_4" fill="#FF9100" d="M125.968 196.619c5.271-8.435 8.467-18.324 8.839-28.978.978-28.026-17.862-52.135-43.938-58.863-.067 1.08-.124 2.16-.162 3.241-1.162 33.286 12.59 63.633 35.261 84.6"/><path id="Vector_5" fill="#DD2C00" d="M131.891 30c-14.852 11.898-26.579 27.586-33.674 45.658a109.7 109.7 0 0 0-7.36 33.127c26.076 6.728 44.916 30.837 43.938 58.863a58.5 58.5 0 0 1-8.839 28.978 109.8 109.8 0 0 0 34.417 21.609c25.79-11.921 44.088-37.574 45.148-67.916.686-19.659-6.867-37.18-17.54-51.969C176.71 82.709 131.891 30 131.891 30"/></g></g></svg>
